src/icons/svgs/16/smile.svg

<svg width="16" height="16" viewBox="0 0 16 16" fill="none" xmlns="http://www.w3.org/2000/svg">
<path d="M8 1C4.13359 1 0.999999 4.1336 1 8C1 11.8664 4.1336 15 8 15C11.8664 15 15 11.8664 15 8C15 4.13359 11.8664 0.999999 8 1ZM10.1875 5.8125C10.6712 5.8125 11.0622 6.20352 11.0622 6.6875C11.0622 7.17148 10.6712 7.5625 10.1875 7.5625C9.70379 7.5625 9.31195 7.17148 9.31195 6.6875C9.31195 6.20352 9.70352 5.8125 10.1875 5.8125ZM5.78789 5.8125C6.2716 5.8125 6.66344 6.20352 6.66344 6.6875C6.66344 7.17148 6.2716 7.5625 5.78789 7.5625C5.30418 7.5625 4.91316 7.17148 4.91316 6.6875C4.91316 6.20352 5.32852 5.8125 5.78789 5.8125ZM11.1391 10.4664C10.3598 11.4016 9.2168 11.9129 8 11.9129C6.7832 11.9129 5.64106 11.3783 4.86094 10.4429C4.48934 9.99719 5.16035 9.43937 5.53277 9.88234C6.14609 10.6414 7.04297 11.0598 8 11.0598C8.95703 11.0598 9.85445 10.6381 10.4664 9.90531C10.8328 9.46289 11.5082 10.0207 11.1391 10.4664Z" fill="black"/>
</svg>

<svg width="16" height="16" viewBox="0 0 16 16" xmlns="http://www.w3.org/2000/svg">
    <path d="M8 1a7 7 0 0 0-7 7 7 7 0 0 0 7 7 7 7 0 0 0 7-7 7 7 0 0 0-7-7Zm2.188 4.813a.874.874 0 1 1 0 1.75.875.875 0 1 1 0-1.75Zm-4.4 0a.875.875 0 1 1-.875.875.89.89 0 0 1 .875-.875Zm5.351 4.653c-.78.936-1.922 1.447-3.139 1.447a4.073 4.073 0 0 1-3.14-1.47c-.37-.446.3-1.004.673-.56A3.146 3.146 0 0 0 8 11.06c.957 0 1.854-.422 2.466-1.155.367-.442 1.042.116.673.561Z"/>
</svg>
